X:190 
T:McDonagh's Reel (1) 
F:file ID misc/190mcdon_1
B:"Play 50 Reels" (Armagh Pipers' Club)
Z:bill@capeirish.com
L:1/8
M:4/4
Q:180
R:reel
K:D
defd A3d|Bdef gfef|defd A3B|cAGE ED D2:|
Adfd adfd|Acec gcec|d2 fd adfd|efge fd d2|
Adfd adfd|cdef g2 fe|defg a3f|gfeg fd d2|]

